X:1
T:F Major – C minor Jacob French, 1789 Revised 1802
T:Various scriptures
T:Thanksgiving Anthem
T:Originally Entitled Exhortation Transcribed from Harmony of Harmony, 1802
%%score [ 1 2 3 4 ]
L:1/8
Q:1/4=120
M:4/4
K:F
V:1 treble nm="Treble" snm="Tr."
V:2 treble nm="Counter" snm="C."
V:3 treble-8 nm="Tenor" snm="T."
V:4 bass nm="Bass" snm="B."
V:1
 F4 | A6 z2 | z8 | z4 z2"^O    sing  un–to  the  Lord," A2 | B2 A2 G2 F2 | G6 AB | c2 d2 e2 e2 | %7
 f6 ed | (c2 A2 F2 G2 | AB c2 d2) c2 | (f2 ed c2) c2 | c6 z2 | %12
 z4 z2"^By  telling  of   his   won   –  ders, eve –" F2 | c2 c2 c2 c2 | (d2 cB) A2 d2 | %15
"^–ry     morning, by    tel  –  ling  of     his   wonders,  his" cd ef g2 c2 | (B2 d2) d2 B2 | %17
 c2 cB AB c2 | c2 f2 e2 d2 ||[M:3/2] e4 e4 df ed ||[M:2/2] c4 cB AB | c2 z2 FG AB | c4 c2 c2 | %23
 c4 A4 | c2 c2 B2 c2 | (f2 d2) B2 B2 | c2 fe d2 d2 ||[M:3/2] e4 e4 d2 d2 | d8 c2 c2 | c12 || %30
[M:2/2] z8 | z8 | z4"^De  –  clare   his honor," A4 | B6 A2 | G2 G4 f2 | f6 e2 | f4 e2 e2 | %37
 d4 d4 ||[M:3/2] d4 d4 z2 AB ||[M:2/2] c4 A4 || %40
[M:3/2] B4 B4"^and his  glo      –      ry    a – mong the     peo      –      ple.           De    –" A2 A2 | %41
 (Bc d2) d2 d2 c2 G2 | c4 c4 (c2 de) | %43
"^– clare his  hon  –  or    a    –  mong the heathen, and his        glo    –      ry  a–mong     the     peo–ple.                     For the" f2 f2 f4 f2 e2 | %44
 d2 d2 d2 d2 c2 B2 ||[M:2/2] c4 B2 c2 | d4 c4 | c4 c4 ||[K:Ab] z4 f3 e |"^Lord" e8 | d2 d2 c4 | %51
 c4 c4 | c2 B2 c2 d2 | e4 e4 | f2 e2 e2 d2 ||[M:3/2] c4 c4 d4 | d4 c8 | c12 ||[K:F][M:2/4] z2 cB | %59
 A2 B2 | c2 cd | c2 c2 | c4 | c>c c2 | c4- | c4- | c2 cB | A2 BB | c2 de | fc de || %70
[M:6/4] (f6- f2 e2) dc |: B2 d2 cB A2 c2 A2 |1 d4 c2 c6 ||1 z8 z2 dc :|2 d4 c2 c6- ||[M:2/2] c8 | %76
"^Hal –  le   –   lu  – jah,   Hal   –  le   –  lu  – jah," A>G AB c2 A2 | G>F GA B2 G2 | %78
 AB cB A2 A2 | (A4 G4) | G8 | c2 A2 d2 B2 | %82
"^Hal–le–lu–jah,  A      –     men.             A         –       men." A2 c2 B2 d2 | (c4 B4) | %84
 A8 ||[M:3/2] (d8 c4) | c12 |] %87
V:2
"^O     sing,       O     sing un–to   the   Lord," C4 | F6 F2 | E2 D2 C2 B,2 | C6 z2 | z8 | %5
 z4 z2"^O         sing  unto  the   Lord,    and" A2 | G2 G2 A2 B2 | A6 G2 | %8
"^praise _________________________ his       glor    –      –      ious   name  By  telling  of  his   won–ders, his wonders  eve–ry" (F2 C2 D2 E2 | %9
 F2 G2 A2) GB | (A3 G F2) [EG]2 | [FA]6 G2 | A2 G2 F2 A2 | (G2 E2) C2 F2 | B2 G2 F2 BA | %15
"^mor    –    ning, by    telling  of  his    won   –   ders,   his    wonders every       morning. and   his            truth day   by" G4 G2 A2 | %16
 F2 F2 F2 G2 | (A2 F2) D2 E2 | F2 A2 G2 G2 ||[M:3/2] G4 G4 F2 G2 ||[M:2/2] F4 G2 A2 | %21
"^day,        day    by       day,   day  by day.   By       telling   of   his    won – ders, his  wonders  every          morning, and his" G2 z2 F2 F2 | %22
 A4 G2 G2 | A4 F4 | A2 A2 G2 F2 | (B2 G2) G2 G2 | F2 A2 G2 G2 ||[M:3/2] G4 G4 F2 A2 | %28
"^truth   day by  day.                      De – clare  his honor,                                                 De – clare  his   hon–or  a-mong the" (G4 F4) E2 E2 | %29
 F12 ||[M:2/2] z4 D4 | E6 E2 | F2 F4 z2 | z8 | z4 z2 A2 | A6 G2 | A4 G2 G2 | F4 F4 || %38
[M:3/2]"^heathen,      a     –      mong the       heathen, and his  glo      –      ry    a – mong the     peo      –      ple.           De    –" F4 F4 z2 F2 || %39
[M:2/2] A4 F4 ||[M:3/2] G4 G4 E2 E2 | F4 G2 AG F2 G2 | A4 A4 (F3 G) | A2 A2 A4 A2 G2 | %44
 F2 F2 B2 B2 c2 G2 ||[M:2/2] (A3 G) F2 F2 | (G2 F2) [EG]4 | [FA]4 [FA]4 ||[K:Ab] z8 | %49
"^For the Lord    is    a    great   God  and   worthy   to   be    prais–ed,   he   is     to    be              fear  –  ed    a –" A3 A A4 | %50
 F2 B2 G4 | A4 F4 | E2 F2 G2 G2 | A4 A4 | [Ac]2 B2 A2 GF ||[M:3/2] G4 A4 A4 | %56
"^–bove   all              gods.                              Let  the heav'ns re–joice,  and the earth be  glad,  let  the  sea    roar, ______" (B2 A2) G8 | %57
 A12 ||[K:F][M:2/4] z2 FE | F2 G2 | A2 AG | F2 E2 | F4 | F>F F2 | G4- | G4- | %66
"^___,  and the   full–ness there-of,    be   –   fore       the                Lord,                   for  he        cometh,  for  he  cometh,  to" G2 FE | %67
 F2 GG | A2 FG | AF G2 ||[M:6/4] A6- A4 GE |: F2 G2 FE F2 E2 F2 |1 %72
"^judge  the world.                       For  he         judge the  world." (G2 F2) [EG]2 [FA]6 ||1 %73
 z8 z2 GE :|2 (G2 F2) [EG]2 [FA]6- ||[M:2/2] [FA]8 | z8 | z8 | %78
"^Hal – le  –   lu –jah,   A       –       men.                                  Hal–le–lu–jah,  A      –     men.             A         –       men." F2 F2 F2 F2 | %79
 (F4 D4) | E8 | z8 | F2 F2 G2 G2 | (F4 E4) | F8 ||[M:3/2] (G4 F4 E4) | F12 |] %87
V:3
 F4 | c6 d2 | c2 B2 A2 G2 | F6 z2 | z8 | z4 z2 f2 | e2 d2 c2 B2 | c6 B2 | (A2 F2 A2 c2 | %9
 d2 e2 f2) ed | (c3 B A2) G2 | F6 z2 | z8 | z4 z2"^By    telling     of    his" c2 | f2 e2 d2 f2 | %15
"^won    –   ders, his   won –ders, his  won   –   ders,  his" (e2 c2) c2 e2 | (d2 B2) B2 d2 | %17
 (c2 A2) F2 G2 | A2 d2 c2 =B2 ||[M:3/2] c4 c4 B2 G2 ||[M:2/2] A4 G2 F2 | G2 z2 c2 c2 | f4 e2 e2 | %23
 f4 c4 | f2 e2 d2 c2 | d4 d2 d2 | c2 c2 =B2 B2 ||[M:3/2] c4 c4 A2 F2 | (B4 A4) G2 G2 | F12 || %30
[M:2/2] z4 F4 | c6 B2 | A2 F4 z2 | z8 | z4 z2 c2 | c6 =B2 | c4 c2 B2 | A4 F4 || %38
[M:3/2] B4 B4 z2 c2 ||[M:2/2] f4 c4 || %40
[M:3/2] d4 d4"^and his  glo       –       ry,             and his     glo       –       ry,             and his" c2 c2 | %41
 dcBA G2 z2 A2 B2 | cBAG F2 z2 A2 B2 | %43
"^–  ry, ____________      and his        glo      –      ry,          and his         glo   –       ry,  a  –  mong the   peo–ple.                      For the" (cdcB c4) c2 c2 | %44
 (fgfe f4) f2 e2 ||[M:2/2] (f2 e2) d2 c2 | (B2 A2) G4 | F4 F4 ||[K:Ab] z4 F3 G |"^Lord" A8 | %50
 f2 f2 =e4 | f4 a4 | g2 f2 e2 d2 | c4 c4 | [Ac]2 B2 c2 d2 ||[M:3/2] e4 e4 (3(f2 g2 a2) | %56
 (g2 f2) =e8 | f12 ||[K:F][M:2/4] z2 AB | c2 de | f2 cB | A2 G2 | F4 | A>A A2 | G4- | G4- | G2 AB | %67
 c2 de | f2 d2 | c2 =B2 ||[M:6/4] c6- c4 Bc |: d2 B2 cd c2 A2 F2 |1 (B2 A2) G2 F6 ||1 z8 z2 Bc :|2 %74
 (B2 A2) G2 F6- ||[M:2/2] F8 | %76
"^Hal –  le   –   lu  – jah,   Hal   –  le   –  lu  – jah," c>d cB A2 F2 | B>c BA G2 C2 | %78
 FG AB c2 d2 | (c4 =B4) | c8 | A2 F2 B2 G2 | %82
"^Hal–le–lu–jah,  A      –     men.             A         –       men." c2 A2 d2 B2 | (A4 G4) | %84
 F8 ||[M:3/2] (B4 A4 G4) | F12 |] %87
V:4
 F,4 | F,6 z2 | z8 | z4 z2"^O    sing  un–to  the  Lord," F,2 | G,2 F,2 E,2 D,2 | C,6 F,2 | %6
 C2 B,2 A,2 G,2 | F,6 C,2 | (F,3 G, F,2 E,2 | D,2 C,2 D,2) E,2 | (F,G,A,B, C2) C,2 | %11
 F,6"^By  telling  of  his   won–ders, his wonders  eve–ry" C,2 | F,2 E,2 D,2 F,2 | %13
 (E,2 C,2) C,2 A,,2 | B,,2 C,2 D,2 B,,2 | %15
"^mor   –    ning, by    telling  of  his    won   –   ders,   his" C,4 C,2 A,,2 | %16
 B,,2 B,,2 B,,2 B,,2 | A,,4 D,2 C,2 | F,2 D,2 G,2 G,2 ||[M:3/2] C,4 C,4 D,2 E,2 || %20
[M:2/2] F,4 E,2 D,2 | C,2 z2 F,2 F,2 | F,4 C,2 C,2 | F,4 F,4 | F,2 F,2 G,2 A,2 | B,4 G,2 B,2 | %26
 A,2 F,2 G,2 [G,,G,]2 ||[M:3/2] C,4 C,4 D,2 D,2 | B,,8 C,2 C,2 | [F,,F,]12 ||[M:2/2] z8 | z8 | %32
 z4"^De  –  clare   his honor," F,4 | G,6 F,2 | E,2 C,4 F,2 | F,6 G,2 | F,4 C,2 C,2 | D,4 D,4 || %38
[M:3/2] B,,4 B,,4 z2 F,2 ||[M:2/2] F,4 A,4 ||[M:3/2] G,4 G,4 z4 | %41
 z8"^and  his     glo       –       ry    a – mong the" F,2 E,2 | F,G,A,B, C2 C2 C2 B,2 | %43
"^people, declare his honor among   the  heathen and his       glo      –    ry   a  –  mong  the   peo–ple.                     For the" A,2 F,F, F,2 F,2 F,2 G,A, | %44
 B,2 B,2 B,2 B,2 A,2 G,2 ||[M:2/2] F,4 B,2 A,2 | (G,2 F,2) C,4 | [F,,F,]4 [F,,F,]4 || %48
[K:Ab] z4 F,3 G, |"^Lord" A,8 | B,2 B,2 C4 | F,4 F,4 | C2 D2 C2 B,2 | A,4 A,4 | F,2 G,2 A,2 B,2 || %55
[M:3/2] (C3 B,) A,4 (D3 C) | (B,4 C4) C,4 | [F,,F,]12 ||[K:F][M:2/4] z2 F,G, | A,2 G,2 | F,2 A,B, | %61
 C2 C,2 | F,4 | F,>F, F,2 | C,4- | C,4- | C,2 F,G, | A,2 G,G, | F,2 B,2 | A,2 G,2 || %70
[M:6/4] F,6- F,4 G,A, |: B,2 G,2 A,G, F,2 C,2 D,2 |1 B,,4 C,2 F,6 ||1 z8 z2 G,A, :|2 %74
 B,,4 C,2 F,6- ||[M:2/2] F,8 | z8 | z8 | %78
"^_____________________________________\nEdited by B. C. Johnston, 2016\n   1.  Measure 11, \nBass\n: Top note changed from D to C.\n   2.  Measures 31-33, Counter: D-B-E-D-D changed to D-E-E-F-F." F,2 F,2 F,2 F,2 | %79
 (F,4 G,4) | C,8 | z8 | A,2 F,2 B,2 G,2 | ([C,C]4 C,4) | [F,,F,]8 ||[M:3/2] (B,,8 C,4) | F,,12 |] %87

